X: 446
T: Bu Kış Hanım İstanbul`a...
C: İsmet Ağa
O: Turkey
F: http://compmusic.upf.edu/node/140
N: karcigar--sarki--aksak--bu_kis--ismet_aga
N: makam= karcigar
N: form= sarki
N: usul= aksak = 9/8
M: 9/8
L: 1/16
K: C _2/4B _3/4e ^3/4f 
Q: 1/4=204
%%MIDI tuningsystem comma53
d3c B2A2 B2c2 d6 | d3cB2 A2B2 c2d6  | \
w:  ARANAĞME  |   | 
d4 d2e2 g2f2 e2d2 c2 | 
w:   | 
c2 B2B2 A2A4d6  | d3c B2A2 B2c2 d6 | \
w:   |  ARANAĞME  | 
d3cB2 A2B2 c2d6  | d4 d2e2 g2f2 e2d2 c2 | 
w:   |   | 
c2 B2B2 A2A4a_b agfg  | a4 f2g2 a4 a6 | \
w:   |  *  Bu  kış  ha nım   | 
a4a2 _b2c'2 b2a2 g2f2  | 
w:  İs tan *  bul_ *  a   | 
f2e2 e2d2 d4 a_bag fg | a4f2 g2a4a6  | \
w:  ta *  şın  *  da   SAZ  |  *  Bu  kış  ha nım   | 
a4 a2_b2 c'2b2 a2g2 f2 | 
w:  İs tan *  bul_ *  a   | 
f2 e2e2 d2d4d6  | d3c B2A2 B2c2 d6 | \
w:  ta *  şın  *  da   SAZ  |  Eğ *  *  le ne *  lim   | 
d3cB2 A2B2 c2d6  | d4 d2e2 g2f2 e2d2 c2 | 
w:  zevk_ *  *  e de *  lim   |  Kal pak *  çı *  lar  | 
c2 B2B2 A2A4d6  | d3c B2A2 B2c2 d6 | \
w:  ba *  şın *  da   SAZ  |  Eğ *  *  le ne *  lim   | 
d3cB2 A2B2 c2d6  | d4 d2e2 g2f2 e2d2 c2 | 
w:  zevk_ *  *  e de *  lim   |  Kal pak *  çı *  lar  | 
c2 B2B2 A2A4g6  | z4 =f2g2 g4 g6 | =f2 g2a2 _b2a2 g2g2 f2e2  | \
w:  ba *  şın *  da   SAZ  |  Gü zel ler  var   |  on  *  üç  *  on  *  dört   | 
f2e2 e2d2 d4 g6 | 
w:  ya *  şın *  da   SAZ  | 
z4=f2 g2g4g6  | =f2g2 a2_b2 a2g2 g2f2 e2 | \
w:  Gü zel ler  var   |  on  *  üç  *  on  *  dört   | 
f2 e2e2 d2d8z2  | d3c B2A2 B2c2 d6 | 
w:  ya *  şın *  da    |  Eğ *  *  le ne *  lim   | 
d3cB2 A2B2 c2d6  | d4 d2e2 g2f2 e2d2 c2 | \
w:  zevk_ *  *  e de *  lim   |  Kal pak *  çı *  lar  | 
c2 B2B2 A2A4d6  | 
w:  ba *  şın *  da   SAZ  | 
d3c B2A2 B2c2 d6 | d3cB2 A2B2 c2d6  | \
w:  Eğ *  *  le ne *  lim   |  zevk_ *  *  e de *  lim   | 
d4 d2e2 g2f2 e2d2 c2 | 
w:  Kal pak *  çı *  lar  | 
c2 B2B2 A2A8z2  | |


